tenants/donaldduck/icons/globe.svg

<svg fill="none" height="24" viewBox="0 0 24 24" width="24" xmlns="http://www.w3.org/2000/svg"><path d="m22 12c0-2.65241-1.0536-5.1962-2.9292-7.07175-1.8755-1.87555-4.4193-2.92923-7.0718-2.92923-2.65238 0-5.19618 1.05368-7.07173 2.92923s-2.92922 4.41934-2.92922 7.07175c0 2.6525 1.05367 5.1962 2.92922 7.0718 1.87555 1.8755 4.41935 2.9292 7.07173 2.9292 2.6525 0 5.1963-1.0537 7.0718-2.9292 1.8756-1.8756 2.9292-4.4193 2.9292-7.0718zm-2.07-1h-2.93c-.1649-2.35183-.9707-4.61363-2.33-6.53998 1.3965.49597 2.6278 1.37007 3.5565 2.52485.9288 1.15477 1.5186 2.54482 1.7035 4.01513zm-10.84995 2h5.91995c-.2559 2.4706-1.3089 4.7908-3 6.61-1.6899-1.8116-2.71876-4.1407-2.91995-6.61zm0-2c.23288-2.45815 1.25755-4.77426 2.91995-6.59998 1.7048 1.80613 2.7602 4.12804 3 6.59998zm.36-6.56998c-1.36645 1.93703-2.1852 4.20672-2.37 6.56998h-3c.1889-1.48848.7926-2.89385 1.74216-4.0556s2.20669-2.03305 3.62784-2.51438zm-5.37 8.56998h3c.16469 2.3613.97788 4.6313 2.35 6.56-1.41603-.4837-2.66802-1.3548-3.61374-2.5144-.94571-1.1596-1.54725-2.5612-1.73626-4.0456zm10.54995 6.55c1.3685-1.9293 2.1907-4.1922 2.38-6.55h2.95c-.1891 1.4803-.7884 2.8781-1.7303 4.0356s-2.1887 2.0284-3.5997 2.5144z" fill="#000"/></svg>

<svg width="24" height="24" viewBox="0 0 24 24" fill="none" xmlns="http://www.w3.org/2000/svg">
<path d="M22 12C22 9.34759 20.9464 6.8038 19.0708 4.92825C17.1953 3.0527 14.6515 1.99902 11.999 1.99902C9.34662 1.99902 6.80282 3.0527 4.92727 4.92825C3.05172 6.8038 1.99805 9.34759 1.99805 12C1.99805 14.6525 3.05172 17.1962 4.92727 19.0718C6.80282 20.9473 9.34662 22.001 11.999 22.001C14.6515 22.001 17.1953 20.9473 19.0708 19.0718C20.9464 17.1962 22 14.6525 22 12ZM19.93 11H17C16.8351 8.64817 16.0293 6.38637 14.67 4.46002C16.0665 4.95599 17.2978 5.83009 18.2265 6.98487C19.1553 8.13964 19.7451 9.52969 19.93 11ZM9.08005 13H15C14.7441 15.4706 13.6911 17.7908 12 19.61C10.3101 17.7984 9.28124 15.4693 9.08005 13ZM9.08005 11C9.31293 8.54185 10.3376 6.22574 12 4.40002C13.7048 6.20615 14.7602 8.52806 15 11H9.08005ZM9.44005 4.43002C8.0736 6.36705 7.25485 8.63674 7.07005 11H4.07005C4.25895 9.51152 4.86265 8.10615 5.81221 6.9444C6.76177 5.78265 8.0189 4.91135 9.44005 4.43002ZM4.07005 13H7.07005C7.23474 15.3613 8.04793 17.6313 9.42005 19.56C8.00402 19.0763 6.75203 18.2052 5.80631 17.0456C4.8606 15.886 4.25906 14.4844 4.07005 13ZM14.62 19.55C15.9885 17.6207 16.8107 15.3578 17 13H19.95C19.7609 14.4803 19.1616 15.8781 18.2197 17.0356C17.2778 18.1931 16.031 19.064 14.62 19.55Z" fill="black"/>
</svg>
